!!!COM: Corelli, Arcangelo
!!!OTL: 
!!!ONM: Opus 6, No. 1
!!!OMV: 4
!!!CDT: 1653/2/17/-1713/1/8/
!!!OCY: Italia
**kern	**kern	**kern	**kern	**kern	**kern	**kern
*clefC	*clefG	*clefG	*clefG	*clefC	*clefG	*clefG
*k[f#c#]	*k[f#c#]	*k[f#c#]	*k[f#c#]	*k[f#c#]	*k[f#c#]	*k[f#c#]
*b:	*b:	*b:	*b:	*b:	*b:	*b:
*M4/4	*M4/4	*M4/4	*M4/4	*M4/4	*M4/4	*M4/4
=1	=1	=1	=1	=1	=1	=1
1r	1r	1r	1r	8B	8ff#	16dd
.	.	.	.	.	.	16ff#
.	.	.	.	8BB	8dd	16bb
.	.	.	.	.	.	16ff#
.	.	.	.	4r	4r	16dd
.	.	.	.	.	.	16b
.	.	.	.	.	.	16dd
.	.	.	.	.	.	16ff#
.	.	.	.	8A	16cc#	8cc#
.	.	.	.	.	16ff#	.
.	.	.	.	8AA	16aa	8f#
.	.	.	.	.	16ff#	.
.	.	.	.	4r	16cc#	4r
.	.	.	.	.	16a	.
.	.	.	.	.	16cc#	.
.	.	.	.	.	16ff#	.
=2	=2	=2	=2	=2	=2	=2
2r	2r	2r	2r	8G	16dd	16b
.	.	.	.	.	16ff#	16dd
.	.	.	.	8GG	16bb	16ff#
.	.	.	.	.	16ff#	16dd
.	.	.	.	4r	16dd	16b
.	.	.	.	.	16b	16bb
.	.	.	.	.	16ee	16gg
.	.	.	.	.	16gg	16b
8F#	8f#	8a#	8cc#	8F#	8a#	8cc#
8BB	8f#	8b	8dd	8BB	8b	8dd
8F#	8.f#	8.b	8.cc#	8F#	8.b	8.cc#
8FF#	.	.	.	8FF#	.	.
.	16f#	16a#	16cc#	.	16a#	16cc#
=3	=3	=3	=3	=3	=3	=3
4BB	4f#	4b	4dd	8B	4b	16dd
.	.	.	.	.	.	16ff#
.	.	.	.	8BB	.	16dd
.	.	.	.	.	.	16b
2.r	2.r	2.r	2.r	4r	16r	4ff#
.	.	.	.	.	16ff#	.
.	.	.	.	.	16dd	.
.	.	.	.	.	16b	.
.	.	.	.	8A	4cc#	16r
.	.	.	.	.	.	16ff#
.	.	.	.	8AA	.	16cc#
.	.	.	.	.	.	16f#
.	.	.	.	4r	16r	4cc#
.	.	.	.	.	16ff#	.
.	.	.	.	.	16cc#	.
.	.	.	.	.	16f#	.
=4	=4	=4	=4	=4	=4	=4
2r	2r	2r	2r	8G	4b	16r
.	.	.	.	.	.	16b
.	.	.	.	8GG	.	16dd
.	.	.	.	.	.	16ff#
.	.	.	.	4r	16r	16b
.	.	.	.	.	16dd	16bb
.	.	.	.	.	16b	16dd
.	.	.	.	.	16cc#	16ee
8F#	8f#	8a#	8cc#	8F#	2a#	2ff#
8G#	8f#	8b	8f#	8G#	.	.
8A#	8f#	8cc#	8.ff#	8A#	.	.
8F#	8f#	8a#	.	8F#	.	.
.	.	.	16ee	.	.	.
=5	=5	=5	=5	=5	=5	=5
8B	8f#	8b	8dd	8B	8ff#	16dd
.	.	.	.	.	.	16ff#
8BB	8f#	8d	8B	8BB	8dd	16bb
.	.	.	.	.	.	16ff#
4r	4r	4r	4r	4r	4r	16dd
.	.	.	.	.	.	16b
.	.	.	.	.	.	16dd
.	.	.	.	.	.	16ff#
8A	8f#	8ff#	8cc#	8A	16cc#	8cc#
.	.	.	.	.	16ff#	.
8AA	8c#	8f#	8A	8AA	16aa	8f#
.	.	.	.	.	16ff#	.
4r	4r	4r	4r	4r	16cc#	4r
.	.	.	.	.	16a	.
.	.	.	.	.	16cc#	.
.	.	.	.	.	16ff#	.
=6	=6	=6	=6	=6	=6	=6
8G	8f#	8dd	8b	8G	16dd	16b
.	.	.	.	.	16ff#	16dd
8GG	8B	8B	8G	8GG	16bb	16ff#
.	.	.	.	.	16ff#	16dd
4r	4r	4r	4r	4r	16dd	16b
.	.	.	.	.	16b	16bb
.	.	.	.	.	16ee	16gg
.	.	.	.	.	16gg	16b
8F#	8f#	8a#	8cc#	8F#	8a#	8cc#
8BB	8f#	8b	8dd	8BB	8b	8dd
8F#	8.f#	8.b	8.cc#	8F#	8.b	8.cc#
8FF#	.	.	.	8FF#	.	.
.	16f#	16a#	16cc#	.	16a#	16cc#
=7	=7	=7	=7	=7	=7	=7
4BB	4f#	4b	4dd	8BB	8b	8dd
.	.	.	.	8B	8dd	4bb
2.r	2.r	2.r	2.r	8f#	8cc#	.
.	.	.	.	8F#	4ff#	8aa
.	.	.	.	8G	.	8b
.	.	.	.	8GG	8ee	4gg
.	.	.	.	8D	8a	.
.	.	.	.	8d	[8dd	8ff#
=8	=8	=8	=8	=8	=8	=8
4.r	4.r	4.r	4.r	8G#	8dd]	4ee
.	.	.	.	8A#	4cc#	.
.	.	.	.	8B	.	4dd
8BB	8b	4b	8dd	8BB	4b	.
8C#	8g#	.	8e#	8C#	.	8e#
8F#	16a	8a	4f#	8F#	8a	4f#
.	16b	.	.	.	.	.
8c#	8.cc#	4g#	.	8c#	4g#	.
8C#	.	.	8e#	8C#	.	8e#
.	16cc#	.	.	.	.	.
=9	=9	=9	=9	=9	=9	=9
4F#	4a	4f#	4f#	8F#	4.f#	8f#
.	.	.	.	8A	.	8cc#
2.r	2.r	2.r	2.r	8B	.	4.ff#
.	.	.	.	8c#	8cc#	.
.	.	.	.	8d	4.ff#	.
.	.	.	.	8A	.	8cc#
.	.	.	.	8B	.	[4ff#
.	.	.	.	8c#	8cc#	.
=10	=10	=10	=10	=10	=10	=10
8r	8r	8r	8r	8d	8ff#	8ff#]
8A	8f#	4aa	4ccc#	8A	4aa	4ccc#
8B	8d	.	.	8B	.	.
8BB	8dd	16gg#	4bb	8BB	16gg#	4bb
.	.	16ff#	.	.	16ff#	.
8C#	8g#	8ee#	.	8C#	8ee#	.
8F#	16a	4ff#	8aa	8F#	4ff#	8aa
.	16b	.	.	.	.	.
8c#	8.cc#	.	4gg#	8c#	.	4gg#
8C#	.	8ee#	.	8C#	8ee#	.
.	16cc#	.	.	.	.	.
=11	=11	=11	=11	=11	=11	=11
4F#	4a	4ff#	4ff#	4F#	16ff#	16aa
.	.	.	.	.	16gg#	16bb
.	.	.	.	.	16aa	16ccc#
.	.	.	.	.	16gg#	16bb
4r	4r	4r	4r	4r	16ff#	16aa
.	.	.	.	.	16gg#	16bb
.	.	.	.	.	16aa	16ccc#
.	.	.	.	.	16ff#	16aa
8B	8b	8dd#	8ff#	8B	8dd#	8bb
8E	8b	4ee	8gg	8E	4ee	8gg
8B	8.b	.	4ff#	8B	.	4ff#
8BB	.	8dd#	.	8BB	8dd#	.
.	16b	.	.	.	.	.
=12	=12	=12	=12	=12	=12	=12
4E	4b	4ee	4gg	4E	16ee	16gg
.	.	.	.	.	16ff#	16aa
.	.	.	.	.	16gg	16bb
.	.	.	.	.	16ff#	16aa
4r	4r	4r	4r	4r	16ee	16gg
.	.	.	.	.	16ff#	16aa
.	.	.	.	.	16gg	16bb
.	.	.	.	.	16ee	16gg
8A	8a	8cc#	8ee	8A	8cc#	8aa
8D	8a	4dd	8ff#	8D	4dd	8ff#
8A	8.a	.	4ee	8A	.	4ee
8AA	.	8cc#	.	8AA	8cc#	.
.	16a	.	.	.	.	.
=13	=13	=13	=13	=13	=13	=13
4D	4a	4dd	4ff#	8D	4dd	8dd
.	.	.	.	8d	.	8ff#
8r	8r	8r	8r	8B	8r	8gg
8A#	8f#	8cc#	8ff#	8A#	8cc#	8ff#
8B	8b	8dd	8gg	8B	8dd	8r
8A	8f#	8cc#	8ff#	8A	8cc#	8ff#
8r	8r	8r	8r	8G	8r	8ee
8F#	8d	8a	8dd	8F#	8a	8dd
=14	=14	=14	=14	=14	=14	=14
8G	8g	8b	8ee	8G	8b	8r
8F#	8d	8a	8dd	8F#	8a	8dd
8r	8r	8r	8r	8E	8r	8cc
8D	8B	8f#	8b	8D	8f#	8b
8E	8e	8g	8cc	8E	8g	8r
8D	8B	8f#	8b	8D	8f#	8b
8C#	8c#	8e	8a#	8C#	8e	8a#
8BB	8f#	8b	8dd	8BB	8b	8dd
=15	=15	=15	=15	=15	=15	=15
4F#	4f#	4a#	4cc#	8F#	4a#	8cc#
.	.	.	.	8D	.	8ff#
2.r	2.r	2.r	2.r	8E	4.r	8b
.	.	.	.	8F#	.	8b
.	.	.	.	8G	.	[2b
.	.	.	.	8D	8ff#	.
.	.	.	.	8E	8b	.
.	.	.	.	8F#	8b	.
=16	=16	=16	=16	=16	=16	=16
8r	4.r	4.r	8r	8G	4b	8b]
8D	.	.	8ff#	8D	.	8ff#
8E	.	.	8gg	8E	8r	8gg
8E	8e	8gg	4ee	8E	8gg	4ee
8F#	8c#	8a#	.	8F#	8a#	.
8BB	16d	4b	8dd	8BB	4b	8dd
.	16e	.	.	.	.	.
8F#	8.f#	.	4cc#	8F#	.	4cc#
8FF#	.	8a#	.	8FF#	8a#	.
.	16f#	.	.	.	.	.
=17	=17	=17	=17	=17	=17	=17
4BB	4f#	4b	4b	4BB	4b	8b
.	.	.	.	.	.	8bb
2.r	2.r	2.r	2.r	8r	8r	8dd#
.	.	.	.	8E	8bb	8ee
.	.	.	.	8B	8dd#	8r
.	.	.	.	8E	8ee	8bb
.	.	.	.	8r	8r	8dd#
.	.	.	.	8E	8bb	8ee
=18	=18	=18	=18	=18	=18	=18
8r	4.r	4.r	8r	8B	8dd#	8r
8G	.	.	8bb	8G	8ee	8bb
8A	.	.	8ccc	8A	8r	8ccc
8AA	8a	8ccc	4aa	8AA	8ccc	4aa
8BB	8f#	8dd#	.	8BB	8dd#	.
8E	16g	4ee	8gg	8E	4ee	8gg
.	16a	.	.	.	.	.
8B	8.b	.	4ff#	8B	.	4ff#
8BB	.	8dd#	.	8BB	8dd#	.
.	16b	.	.	.	.	.
=19	=19	=19	=19	=19	=19	=19
4E	4b	4ee	4ee	8E	1ee	1ee
.	.	.	.	8A	.	.
2.r	2.r	2.r	2.r	8G#	.	.
.	.	.	.	8A	.	.
.	.	.	.	8E	.	.
.	.	.	.	8A	.	.
.	.	.	.	8G#	.	.
.	.	.	.	8A	.	.
=20	=20	=20	=20	=20	=20	=20
8B	8dd	8gg#	8ee#	8B	8gg#	8ee#
8F#	8cc#	8aa	4ff#	8F#	8aa	4ff#
8c#	8.cc#	4gg#	.	8c#	4gg#	.
8C#	.	.	8ee#	8C#	.	8ee#
.	16cc#	.	.	.	.	.
4F#	4cc#	4ff#	4ff#	8F#	[2ff#	[2ff#
.	.	.	.	8B	.	.
4r	4r	4r	4r	8A#	.	.
.	.	.	.	8F#	.	.
=21	=21	=21	=21	=21	=21	=21
2r	2r	2r	2r	8r	2ff#]	2ff#]
.	.	.	.	8B	.	.
.	.	.	.	8A#	.	.
.	.	.	.	8F#	.	.
8B	8b	8ff#	8dd	8B	8ff#	16dd
.	.	.	.	.	.	16ff#
8BB	8f#	8d	8B	8BB	8dd	16bb
.	.	.	.	.	.	16ff#
4r	4r	4r	4r	4r	4r	16dd
.	.	.	.	.	.	16b
.	.	.	.	.	.	16dd
.	.	.	.	.	.	16ff#
=22	=22	=22	=22	=22	=22	=22
8A	8f#	8ff#	8cc#	8A	16cc#	8cc#
.	.	.	.	.	16ff#	.
8AA	8c#	8f#	8A	8AA	16aa	8f#
.	.	.	.	.	16ff#	.
4r	4r	4r	4r	4r	16cc#	4r
.	.	.	.	.	16a	.
.	.	.	.	.	16cc#	.
.	.	.	.	.	16ff#	.
8G	8f#	8dd	8b	8G	16dd	16b
.	.	.	.	.	16ff#	16dd
8GG	8B	8B	8G	8GG	16bb	16ff#
.	.	.	.	.	16ff#	16dd
4r	4r	4r	4r	4r	16dd	16b
.	.	.	.	.	16b	16bb
.	.	.	.	.	16ee	16gg
.	.	.	.	.	16gg	16b
=23	=23	=23	=23	=23	=23	=23
4F#	4f#	4cc#	4a#	8F#	4a#	8cc#
.	.	.	.	8FF#	.	16ff#
.	.	.	.	.	.	16ee
2.r	2.r	2.r	2.r	8r	8r	4.ff#
.	.	.	.	8A#	8cc#	.
.	.	.	.	8B	4dd	.
.	.	.	.	8BB	.	16gg
.	.	.	.	.	.	16ff#
.	.	.	.	8r	8r	[4gg
.	.	.	.	8B	8dd	.
=24	=24	=24	=24	=24	=24	=24
2..r	2..r	2..r	2..r	8c#	4ee	8gg]
.	.	.	.	8C#	.	16aa
.	.	.	.	.	.	16gg
.	.	.	.	8r	8r	4.aa
.	.	.	.	8c#	8ee	.
.	.	.	.	8d	4ff#	.
.	.	.	.	8D	.	16bb
.	.	.	.	.	.	16aa
.	.	.	.	8r	8r	16bb
.	.	.	.	.	.	16ff#
8D#	8b	8ff#	8bb	8D#	8ff#	16bb
.	.	.	.	.	.	16aa
=25	=25	=25	=25	=25	=25	=25
8E	8b	8b	8gg	8E	8b	8gg
8F#	8f#	8a#	4ff#	8F#	8a#	4ff#
8G	8b	4b	.	8G	4b	.
8E	8g	.	4ee	8E	.	4ee
8F#	8c#	8a#	.	8F#	8a#	.
8BB	16d	4b	8dd	8BB	4b	8dd
.	16e	.	.	.	.	.
8F#	8.f#	.	4cc#	8F#	.	4cc#
8FF#	.	8a#	.	8FF#	8a#	.
.	16f#	.	.	.	.	.
=26	=26	=26	=26	=26	=26	=26
8BB	4f#	4b	4b	8BB	4b	4b
8B	.	.	.	8B	.	.
8A#	8r	4r	4cc#	8A#	4r	4cc#
8F#	8f#	.	.	8F#	.	.
8B	8f#	4b	8dd	8B	4b	8dd
8BB	8B	.	4b	8BB	.	4b
8F#	8r	4cc#	.	8F#	4cc#	.
8FF#	8f#	.	8a#	8FF#	.	8a#
=27	=27	=27	=27	=27	=27	=27
8r	8f#	8dd	4b	8r	8dd	4b
8BB	8B	4b	.	8BB	4b	.
8F#	8r	.	4cc#	8F#	.	4cc#
8FF#	8f#	8a#	.	8FF#	8a#	.
8BB	4f#	8b	8dd	8BB	8b	8dd
8AA	.	8cc#	4ff#	8AA	8cc#	4ff#
4GG	4B	4b	.	4GG	4b	.
.	.	.	8ee	.	.	8ee
=28	=28	=28	=28	=28	=28	=28
1FF#	1c#	1a#	1ff#	1FF#	1a#	1ff#
==	==	==	==	==	==	==
*-	*-	*-	*-	*-	*-	*-
!!!RWG: This file only contains pitch and duration data.
!!!RWG: Transposing instruments are not transposed.
!!!RWG: Durations of rests and tied notes may be interpreted.
!!!RWG: Key is interpreted using the Humdrum key tool.
!!!SCA: 
!!!YOR: Chrysander Edition
!!!AGN: concerto grosso
!!!AFT: stage1
!!!ENC: F. Bennion
!!!END: 1997/04/15
!!!AST: baroque
!!!YEC: Copyright 1994, Center for Computer Assisted Research in the Humanities
!!!YEM: Rights to all derivative electronic formats reserved.
!!!YEM: Refer to licensing agreement for further details.
!!!YEN: United States of America
!!!EED: W.B. Hewlett
!!!KEY: 2470998485
!!!EMD: Converted from MuseData to Humdrum Aug 2, 1999, by Bret Aarden using muse2kern.
!!!VTS: 3766275682
